X:1     %Music
T:Kalinka
B:Singing Together, Spring 1975, BBC Publications
F:http://www.folkinfo.org/songs
M:2/4     %Meter
L:1/16     %
K:G
HB4 HB4 |A4 F2G2 |A4 F2G2 |A4 G2F2 | E4
w: * Ka-lin-ka, Ka-lin-ka, Ka-lin-ka, my dear,
B4 |(A3G) F2G2 |A4 F2G2 |A4 G2F2 | E4
w:Your name_ in the whis-per of pines I can hear,
B4 |A4 F2G2 |A4 F2G2 |A4 G2F2 | E4
w:Ka-lin-ka, Ka-lin-ka, Ka-lin-ka my dear,
B4 |(A3G) F2G2 |A4 F2G2 |A4 G2F2 | E8|
w:Your name_ in the whis-per of pines I can hear
(He8|Hd8) |B2d2 c2(BG) | G4 D4 | B2d2 c2(BA) |G4 D4 |
w: Oh_ un-der-neath the_ pine tree, Green and sha-dy_ pine tree, 
D4 (E2F2) | (A2G2) (F2E2) |D4 d4 |d8 |
w:Let me_ lin--ger_ there and dream.  
(B2d2) (c2BA) |G4 E4 |(B2d2) (c2BA) |G4 D4 |
w:Lul--lay__ lul-lay, Lul--lay,__ lul-lay, 
E4 (E2F2) |(A2G2) (F2E2) |d4 c4 |B8-|B4  |]
w:Let me_ lin-*ger_ there and dream. *